packages/ui-icons/svg/Line/drag-handle.svg

<svg viewBox="0 0 1920 1920" version="1.1" xmlns="http://www.w3.org/2000/svg">
    <path d="M686.211429,137.142857 C686.211429,137.142857 686.211429,137.142857 686.211429,137.005714 L754.782857,137.142857 L686.211429,137.142857 Z M686.211429,1645.71429 C761.777143,1645.71429 823.354286,1707.29143 823.354286,1782.85714 C823.354286,1858.42286 761.777143,1920 686.211429,1920 C610.508571,1920 549.068571,1858.42286 549.068571,1782.85714 C549.068571,1707.29143 610.508571,1645.71429 686.211429,1645.71429 Z M1234.78286,1645.71429 C1310.34857,1645.71429 1371.92571,1707.29143 1371.92571,1782.85714 C1371.92571,1858.42286 1310.34857,1920 1234.78286,1920 C1159.08,1920 1097.64,1858.42286 1097.64,1782.85714 C1097.64,1707.29143 1159.08,1645.71429 1234.78286,1645.71429 Z M686.211429,1097.14286 C761.777143,1097.14286 823.354286,1158.72 823.354286,1234.28571 C823.354286,1309.85143 761.777143,1371.42857 686.211429,1371.42857 C610.508571,1371.42857 549.068571,1309.85143 549.068571,1234.28571 C549.068571,1158.72 610.508571,1097.14286 686.211429,1097.14286 Z M1234.78286,1097.14286 C1310.34857,1097.14286 1371.92571,1158.72 1371.92571,1234.28571 C1371.92571,1309.85143 1310.34857,1371.42857 1234.78286,1371.42857 C1159.08,1371.42857 1097.64,1309.85143 1097.64,1234.28571 C1097.64,1158.72 1159.08,1097.14286 1234.78286,1097.14286 Z M686.211429,548.571429 C761.777143,548.571429 823.354286,610.148571 823.354286,685.714286 C823.354286,761.28 761.777143,822.857143 686.211429,822.857143 C610.508571,822.857143 549.068571,761.28 549.068571,685.714286 C549.068571,610.148571 610.508571,548.571429 686.211429,548.571429 Z M1234.78286,548.571429 C1310.34857,548.571429 1371.92571,610.148571 1371.92571,685.714286 C1371.92571,761.28 1310.34857,822.857143 1234.78286,822.857143 C1159.08,822.857143 1097.64,761.28 1097.64,685.714286 C1097.64,610.148571 1159.08,548.571429 1234.78286,548.571429 Z M686.211429,0 C761.777143,0 823.354286,61.5771429 823.354286,137.142857 C823.354286,212.708571 761.777143,274.285714 686.211429,274.285714 C610.508571,274.285714 549.068571,212.708571 549.068571,137.142857 C549.068571,61.5771429 610.508571,0 686.211429,0 Z M1234.71429,0 C1310.28,0 1371.85714,61.5771429 1371.85714,137.142857 C1371.85714,212.708571 1310.28,274.285714 1234.71429,274.285714 C1159.14857,274.285714 1097.57143,212.708571 1097.57143,137.142857 C1097.57143,61.5771429 1159.14857,0 1234.71429,0 Z" stroke="none" stroke-width="1" fill-rule="evenodd"/>
</svg>

<svg viewBox="0 0 1920 1920" xmlns="http://www.w3.org/2000/svg">
    <path d="M686.211 137.143v-.137l68.572.137H686.21Zm0 1508.571c75.566 0 137.143 61.577 137.143 137.143S761.777 1920 686.211 1920c-75.702 0-137.142-61.577-137.142-137.143s61.44-137.143 137.142-137.143Zm548.572 0c75.566 0 137.143 61.577 137.143 137.143S1310.349 1920 1234.783 1920c-75.703 0-137.143-61.577-137.143-137.143s61.44-137.143 137.143-137.143ZM686.21 1097.143c75.566 0 137.143 61.577 137.143 137.143 0 75.565-61.577 137.143-137.143 137.143-75.702 0-137.142-61.578-137.142-137.143 0-75.566 61.44-137.143 137.142-137.143Zm548.572 0c75.566 0 137.143 61.577 137.143 137.143 0 75.565-61.577 137.143-137.143 137.143-75.703 0-137.143-61.578-137.143-137.143 0-75.566 61.44-137.143 137.143-137.143ZM686.21 548.57c75.566 0 137.143 61.578 137.143 137.143 0 75.566-61.577 137.143-137.143 137.143-75.702 0-137.142-61.577-137.142-137.143 0-75.565 61.44-137.143 137.142-137.143Zm548.572 0c75.566 0 137.143 61.578 137.143 137.143 0 75.566-61.577 137.143-137.143 137.143-75.703 0-137.143-61.577-137.143-137.143 0-75.565 61.44-137.143 137.143-137.143ZM686.21 0c75.566 0 137.143 61.577 137.143 137.143S761.776 274.286 686.21 274.286c-75.702 0-137.142-61.577-137.142-137.143S610.509 0 686.21 0Zm548.503 0c75.566 0 137.143 61.577 137.143 137.143s-61.577 137.143-137.143 137.143c-75.565 0-137.143-61.577-137.143-137.143S1159.15 0 1234.714 0Z" fill-rule="evenodd"/>
</svg>
